apps/docs/public/assets/libravelUi.svg

<svg xmlns="http://www.w3.org/2000/svg" xmlns:xlink="http://www.w3.org/1999/xlink" version="1.1" x="0px" y="0px" width="100%" viewBox="0 0 737 307" xml:space="preserve">
    
    <path fill="#000" opacity="1.000000" stroke="none" d=" M143.940063,218.009384 C140.161621,218.009384 136.865997,218.009384 133.331360,218.009384 C133.331360,181.076385 133.331360,144.511230 133.331360,107.608765 C139.937546,107.608765 146.520569,107.608765 152.978058,107.608765 C152.978058,122.627579 152.978058,137.735474 152.978058,153.713516 C153.808090,152.204102 154.529800,151.160507 154.990479,150.012192 C159.357040,139.127548 167.082794,132.650970 179.029541,132.078278 C191.568787,131.477188 201.388687,136.714417 206.620712,148.034027 C215.090820,166.359344 215.030197,185.279831 206.542679,203.574844 C200.546921,216.498779 188.404846,222.227310 174.318695,219.892242 C164.761337,218.307907 158.863403,212.021576 155.172607,203.403870 C154.239548,201.225235 153.370483,199.019196 151.444977,197.065475 C151.444977,203.819473 151.444977,210.573471 151.444977,218.009384 C149.290100,218.009384 146.856491,218.009384 143.940063,218.009384 M160.821182,197.640579 C171.499985,207.645508 184.356155,204.550735 189.031281,190.674789 C192.216019,181.222305 192.058716,171.604355 188.821518,162.195984 C186.666580,155.933075 182.914734,150.909576 175.709564,149.954834 C167.775162,148.903458 162.056442,152.537796 158.473206,159.281403 C151.628525,172.162979 152.310822,184.852722 160.821182,197.640579 z" />
    <path fill="#FE4284" opacity="1.000000" stroke="none" d=" M555.087585,130.001312 C555.087585,123.874802 555.087585,118.247871 555.087585,112.364044 C562.077026,112.364044 568.661560,112.364044 575.912415,112.364044 C575.912415,114.128418 575.912415,115.889160 575.912415,117.649902 C575.912415,136.306946 575.846313,154.964417 575.965332,173.620697 C575.990662,177.590942 576.297607,181.643890 577.154419,185.508087 C579.504028,196.104950 586.938782,201.821808 597.964417,201.990402 C609.227905,202.162643 616.916016,196.529968 619.448059,185.749741 C620.351379,181.903900 620.634094,177.840286 620.659790,173.872574 C620.780579,155.216309 620.713440,136.558823 620.713440,117.901779 C620.713440,116.094841 620.713440,114.287910 620.713440,112.291122 C627.747925,112.291122 634.351624,112.291122 640.980591,112.291122 C641.177795,112.874329 641.471863,113.336922 641.470642,113.798729 C641.409729,136.614395 642.036621,159.461151 641.041748,182.236938 C640.022278,205.573868 626.286377,218.513138 602.889771,220.094116 C587.680237,221.121902 573.593018,218.672104 563.496460,205.666153 C557.183044,197.533508 555.176086,187.998505 555.115112,177.976242 C555.018799,162.151657 555.088257,146.326050 555.087585,130.001312 z" />
    <path fill="#000" opacity="1.000000" stroke="none" d=" M350.700623,193.000122 C350.700592,201.467346 350.700592,209.434555 350.700592,217.704041 C344.486847,217.704041 338.594177,217.704041 332.459412,217.704041 C332.459412,211.107712 332.459412,204.545990 332.459412,197.984283 C332.150421,197.858917 331.841400,197.733551 331.532410,197.608185 C330.962891,198.964188 330.429047,200.336487 329.818451,201.673737 C323.144348,216.290482 307.550781,223.533585 292.082733,219.322189 C283.020355,216.854843 277.229767,211.423904 275.870544,201.893524 C274.409241,191.647308 276.688812,182.370361 286.394135,177.573181 C293.690887,173.966507 301.984344,172.298279 309.928070,170.107819 C314.708160,168.789719 319.713898,168.309097 324.535553,167.117630 C330.080597,165.747406 331.438538,162.941635 329.664612,157.480179 C327.552643,150.977982 319.155640,147.343002 310.823669,149.324127 C302.625854,151.273315 298.959595,155.690170 297.528564,165.846191 C291.531982,165.268097 285.496063,164.686188 279.517883,164.109863 C277.759857,152.177353 285.551788,140.275055 296.024780,135.959259 C306.336578,131.709900 316.934967,130.645523 327.723755,133.558060 C340.963440,137.132217 348.383972,146.295425 349.730560,159.581924 C350.834595,170.475540 350.434143,181.521622 350.700623,193.000122 M304.526794,204.110840 C319.421478,206.062836 332.234222,192.769333 329.603180,178.104050 C326.542145,178.738739 323.461578,179.292511 320.424286,180.025513 C314.661316,181.416321 308.793701,182.538071 303.216064,184.479721 C298.850861,185.999313 296.402252,189.556015 296.520325,194.517197 C296.638336,199.476974 299.092712,202.564514 304.526794,204.110840 M332.452881,195.272171 C332.410461,195.765732 332.368073,196.259293 332.325684,196.752853 C332.488800,196.422577 332.651917,196.092285 332.452881,195.272171 z" />
    <path fill="#000" opacity="1.000000" stroke="none" d=" M507.415405,206.347260 C501.040863,215.224686 492.381744,219.371597 482.111572,219.890976 C476.021729,220.198959 469.745850,220.169724 463.786163,219.052124 C448.882111,216.257248 439.805145,206.770752 436.139282,192.255035 C432.821625,179.118073 433.605408,166.112045 439.132538,153.645218 C446.669952,136.644150 463.506226,129.042816 484.171143,133.051147 C499.696442,136.062561 509.933136,149.353470 510.518280,167.344254 C510.630707,170.801483 510.534424,174.265503 510.534424,178.522781 C491.559113,178.522781 473.333893,178.522781 455.166351,178.522781 C454.275360,192.766159 461.246857,202.963791 472.021912,204.054413 C485.771637,205.446136 491.031036,201.291519 493.192108,186.904343 C499.237640,187.306030 505.327271,187.710663 511.827393,188.142563 C512.696960,194.675781 510.834961,200.506302 507.415405,206.347260 M482.442505,150.724487 C469.348480,144.746979 456.145477,153.453659 456.228210,166.207520 C467.727570,166.207520 479.214172,166.207520 490.863434,166.207520 C490.157501,159.583771 488.422668,154.388489 482.442505,150.724487 z" />
    <path fill="#000" opacity="1.000000" stroke="none" d=" M432.015686,142.036026 C423.540436,167.497177 415.187805,192.575073 406.784302,217.805573 C398.068176,217.805573 389.454620,217.805573 380.399689,217.805573 C371.204010,190.216919 361.973999,162.525345 352.599487,134.400131 C360.179993,134.400131 367.234039,134.400131 374.831573,134.400131 C380.948914,155.674896 387.128143,177.164825 393.307373,198.654755 C393.686401,198.721481 394.065460,198.788208 394.444489,198.854935 C400.747314,177.346802 407.050140,155.838669 413.360779,134.303894 C420.438507,134.303894 427.195770,134.303894 434.534058,134.303894 C433.658813,136.988632 432.898529,139.320709 432.015686,142.036026 z" />
    <path fill="#000" opacity="1.000000" stroke="none" d=" M241.977448,158.981964 C243.799728,153.315628 244.915009,147.285873 247.599777,142.062866 C252.362579,132.797165 262.014740,129.900009 271.432404,134.113602 C272.549042,134.613205 274.027649,136.061676 274.012421,137.049881 C273.908203,143.812485 273.449860,150.569626 273.093811,157.560410 C270.951752,156.801575 269.401428,156.222321 267.831818,155.701218 C258.630157,152.646347 250.622650,155.534119 247.576385,164.685059 C245.052139,172.267822 244.024933,180.511108 243.457336,188.541107 C242.779526,198.130447 243.297470,207.804306 243.297470,217.727295 C236.315826,217.727295 229.609543,217.727295 222.730453,217.727295 C222.730453,189.886368 222.730453,162.174957 222.730453,134.364960 C228.921066,134.364960 234.826630,134.364960 240.417480,134.364960 C240.417480,142.417725 240.417480,150.193451 240.206375,158.835846 C239.995270,162.973679 239.995270,166.244843 239.995270,169.516006 C240.311905,169.531143 240.628540,169.546295 240.945175,169.561432 C241.289261,166.034943 241.633362,162.508453 241.977448,158.981964 z" />
    <path fill="#000" opacity="1.000000" stroke="none" d=" M86.910034,198.998230 C86.910034,205.471298 86.910034,211.444336 86.910034,217.710312 C79.924858,217.710312 73.210136,217.710312 66.307571,217.710312 C66.307571,180.971893 66.307571,144.394455 66.307571,107.459198 C73.114540,107.459198 79.715782,107.459198 86.910034,107.459198 C86.910034,137.707413 86.910034,168.102814 86.910034,198.998230 z" />
    <path fill="#000" opacity="1.000000" stroke="none" d=" M528.093079,218.008072 C525.638977,218.008072 523.670959,218.008072 521.436646,218.008072 C521.436646,181.121353 521.436646,144.574310 521.436646,107.563492 C528.114258,107.563492 534.838196,107.563492 541.925964,107.563492 C541.925964,144.076324 541.925964,180.748474 541.925964,218.008072 C537.455566,218.008072 533.017334,218.008072 528.093079,218.008072 z" />
    <path fill="#FE4284" opacity="1.000000" stroke="none" d=" M676.130310,194.999985 C676.130310,202.806808 676.130310,210.113617 676.130310,217.712189 C669.144226,217.712189 662.398682,217.712189 655.369873,217.712189 C655.369873,182.671753 655.369873,147.630920 655.369873,112.345833 C662.135193,112.345833 668.733337,112.345833 676.130310,112.345833 C676.130310,139.713928 676.130310,167.106949 676.130310,194.999985 z" />
    <path fill="#000" opacity="1.000000" stroke="none" d=" M99.437424,185.999756 C99.437447,168.562485 99.437447,151.625229 99.437447,134.387604 C106.576302,134.387604 113.305229,134.387604 120.378281,134.387604 C120.378281,162.048584 120.378281,189.732071 120.378281,217.718536 C113.495575,217.718536 106.759140,217.718536 99.437408,217.718536 C99.437408,207.360733 99.437408,196.930237 99.437424,185.999756 z" />
    <path fill="#000" opacity="1.000000" stroke="none" d=" M97.675613,119.154434 C96.957069,111.166382 99.830940,107.319702 106.981323,106.182678 C114.972794,104.911919 121.216766,108.190384 122.473099,114.316803 C123.683609,120.219788 120.571274,124.874550 114.635757,126.038208 C105.902718,127.750343 100.758682,125.765160 97.675613,119.154434 z" />
  </svg>

<svg xmlns="http://www.w3.org/2000/svg" xml:space="preserve" viewBox="0 0 737 307"><path d="M143.94 218.01h-10.609V107.608h19.647v46.105c.83-1.51 1.552-2.553 2.012-3.702 4.367-10.884 12.093-17.361 24.04-17.934 12.539-.6 22.359 4.636 27.59 15.956 8.47 18.325 8.41 37.246-.077 55.54-5.996 12.925-18.138 18.653-32.224 16.318-9.558-1.584-15.456-7.87-19.146-16.488-.933-2.179-1.803-4.385-3.728-6.339v20.944zm16.881-20.368c10.679 10.005 23.535 6.91 28.21-6.966 3.185-9.453 3.028-19.07-.21-28.479-2.154-6.263-5.906-11.286-13.111-12.241-7.935-1.052-13.654 2.583-17.237 9.326-6.844 12.882-6.162 25.572 2.348 38.36"/><path fill="#fe4284" d="M555.088 130.001v-17.637h20.824v5.286c0 18.657-.066 37.314.053 55.97.026 3.97.333 8.024 1.19 11.888 2.349 10.597 9.784 16.314 20.81 16.482 11.263.173 18.951-5.46 21.483-16.24.903-3.846 1.186-7.91 1.212-11.877.12-18.657.053-37.314.053-55.971v-5.61h20.268c.197.582.49 1.045.49 1.507-.061 22.815.566 45.662-.43 68.438-1.019 23.337-14.755 36.276-38.151 37.857-15.21 1.028-29.297-1.422-39.394-14.428-6.313-8.132-8.32-17.667-8.38-27.69-.097-15.824-.028-31.65-.028-47.975"/><path d="M350.7 193v24.704h-18.24v-19.72l-.928-.376c-.57 1.356-1.103 2.728-1.714 4.066-6.674 14.616-22.267 21.86-37.735 17.648-9.063-2.467-14.853-7.898-16.212-17.428-1.462-10.247.818-19.524 10.523-24.32 7.297-3.607 15.59-5.276 23.534-7.466 4.78-1.318 9.786-1.799 14.608-2.99 5.545-1.37 6.903-4.176 5.129-9.638-2.112-6.502-10.51-10.137-18.841-8.156-8.198 1.95-11.864 6.366-13.295 16.522l-18.011-1.736c-1.758-11.933 6.034-23.835 16.507-28.15 10.312-4.25 20.91-5.314 31.699-2.402 13.24 3.574 20.66 12.737 22.007 26.024 1.104 10.894.703 21.94.97 33.418m-46.174 11.11c14.894 1.953 27.707-11.34 25.076-26.006-3.06.635-6.141 1.189-9.179 1.922-5.763 1.39-11.63 2.512-17.208 4.454-4.365 1.52-6.814 5.076-6.696 10.037.118 4.96 2.573 8.048 8.007 9.594m27.926-8.839-.127 1.48c.163-.33.326-.66.127-1.48M507.415 206.347c-6.374 8.878-15.033 13.025-25.303 13.544-6.09.308-12.366.279-18.326-.839-14.904-2.795-23.98-12.281-27.647-26.797-3.317-13.137-2.534-26.143 2.994-38.61 7.537-17 24.373-24.602 45.038-20.594 15.525 3.012 25.762 16.302 26.347 34.293.113 3.457.016 6.922.016 11.179h-55.368c-.89 14.243 6.08 24.44 16.856 25.531 13.75 1.392 19.009-2.762 21.17-17.15l18.635 1.239c.87 6.533-.992 12.363-4.412 18.204m-24.972-55.623c-13.095-5.977-26.298 2.73-26.215 15.484h34.635c-.705-6.624-2.44-11.82-8.42-15.484M432.016 142.036c-8.476 25.461-16.828 50.54-25.232 75.77H380.4L352.6 134.4h22.232l18.475 64.255 1.137.2 18.917-64.551h21.173c-.875 2.685-1.635 5.017-2.518 7.732M241.977 158.982c1.823-5.666 2.938-11.696 5.623-16.92 4.763-9.265 14.415-12.162 23.832-7.948 1.117.5 2.596 1.948 2.58 2.936-.104 6.762-.562 13.52-.918 20.51-2.142-.758-3.693-1.338-5.262-1.859-9.202-3.055-17.21-.167-20.256 8.984-2.524 7.583-3.551 15.826-4.119 23.856-.677 9.59-.16 19.263-.16 29.186H222.73v-83.362h17.687c0 8.053 0 15.828-.21 24.47-.212 4.139-.212 7.41-.212 10.681l.95.045zM86.91 198.998v18.712H66.308V107.46H86.91zM528.093 218.008h-6.656V107.563h20.489v110.445z"/><path fill="#fe4284" d="M676.13 195v22.712h-20.76V112.346h20.76z"/><path d="M99.437 186v-51.612h20.941v83.33h-20.94zM97.676 119.154c-.719-7.988 2.155-11.834 9.305-12.971 7.992-1.271 14.236 2.007 15.492 8.134 1.21 5.903-1.902 10.558-7.837 11.721-8.733 1.712-13.877-.273-16.96-6.884"/></svg>
